packages/core/src/svgs/tokens/branded/XEM.svg

<svg width="24" height="24" viewBox="0 0 24 24" fill="none" xmlns="http://www.w3.org/2000/svg">
<path d="M18.01 16.5853C18.0198 15.5721 17.7684 14.5732 17.28 13.6853C16.1113 11.5322 13.2749 10.8822 12.8199 8.24522C12.6083 7.10794 12.8408 5.93271 13.4696 4.96163C14.0983 3.99055 15.0755 3.29751 16.1999 3.02526C18.2187 2.53276 20.2925 3.65214 22 4.61527C21.9825 8.95033 20.4724 13.0391 18.01 16.5853Z" fill="#32A4F2"/>
<path d="M12.4162 3.87527C12.9476 3.14818 13.636 2.55006 14.43 2.12526C10.1106 1.70651 5.79439 2.46276 2 4.62528C2.005 6.98904 2.18875 10.0297 4.43438 11.3427C6.9569 12.8178 10.2943 11.4428 11.0801 8.66523C11.5538 6.94153 11.2587 5.45902 12.4162 3.87527Z" fill="#FFAA12"/>
<path d="M9.72991 12.6353C7.88622 13.694 5.53622 13.7003 3.69995 12.6253C5.39496 16.491 8.33123 19.874 12 21.9854C14.55 20.4804 17.3976 18.6971 16.3301 15.2654C15.5081 12.4922 12.2175 11.2147 9.72991 12.6353Z" fill="#2CBAAD"/>
</svg>

<svg xmlns="http://www.w3.org/2000/svg" width="24" height="24" fill="none" viewBox="0 0 24 24">
    <path fill="#32A4F2" d="M18.01 16.585a5.9 5.9 0 0 0-.73-2.9c-1.169-2.153-4.005-2.803-4.46-5.44a4.52 4.52 0 0 1 3.38-5.22c2.019-.492 4.093.627 5.8 1.59-.017 4.335-1.528 8.424-3.99 11.97"/>
    <path fill="#FFAA12" d="M12.416 3.875a6 6 0 0 1 2.014-1.75c-4.32-.418-8.636.338-12.43 2.5.005 2.364.189 5.405 2.434 6.718 2.523 1.475 5.86.1 6.646-2.678.474-1.723.179-3.206 1.336-4.79"/>
    <path fill="#2CBAAD" d="M9.73 12.635c-1.844 1.059-4.194 1.065-6.03-.01 1.695 3.866 4.631 7.249 8.3 9.36 2.55-1.505 5.398-3.288 4.33-6.72-.822-2.773-4.112-4.05-6.6-2.63"/>
</svg>
